X:1
T:Vere languores - Victoria
T:James Gibb editions
T:#
%%score [ 1 2 3 4 ]
L:1/8
Q:1/4=108
M:4/4
K:D
V:1 treble nm="Soprano" snm="S"
V:2 treble nm="Alto" snm="A"
V:3 treble-8 nm="Tenor" snm="T"
V:4 bass nm="Bass" snm="B"
V:1
"^Vere languores""^Tomás Luis de Victoria\n(1548-1611)" B8 | ^A4 B4 | c6 c2 | B8 | ^A4 B4 | %5
w: Ve-|re lan-|guo- res|no-|stros ip-|
 F4 (B4- | B2 ^A^G A4) | B4 z2 B2- | B2 B2 B2 B2 |[M:4/4] (d6 c2 | B4) ^A4 | z2 c4 c2 | %12
w: se tu\-||lit, et|* do- lo- res|no\- *|* stros,|et do-|
 c2 c2 (d2 c2- | c2 B2) c4 | z2 c2 B2 ^G2 | B4 F2 B2 | A2 (F^G AB c2) | B8 | ^A4 z4 | B4 B2 B2 | %20
w: lo- res no\- *|* * stros|ip- se por-|ta- vit, ip-|se por\- * * * *|ta-|vit:|cu- jus li-|
 c8 | ^A2 d2 d2 d2 | (c2 B4 ^A2) | B4 z2 d2 | d2 d2 (c2 A2 | B4 ^A2 d2 | d2 d2 (c2 B2- | %27
w: vo-|re sa- na- ti|su\- * *|mus, cu-|jus li- vo\- *|* re sa-|na- ti su\- *|
 B2 ^A2) B4 | z4 A4- | A4 A4- | A4 G4- | G4 F4- | F4 F4- | F2 F2 G4 | F4 z2 A2- | A2 A2 A4- | %36
w: * * mus.|Dul\-|* ce|* lig\-|* num,|* dul\-|* ces cla-|vos, dul\-|* ci- a|
 A4 A4 | G4 F4- | F2 F2 F4- | F4 z4 | z8 | z2 B2 B4 | c6 c2 | ^A2 A2 B3 =A/^G/ | F4) ^G4 | %45
w: * fe-|rens pon\-|* de- ra,|||quae so-|la fu-|i- sti dig\- * *|* na,|
 z2 ^G2 A4 | F4 z2 B2 | B4 c2 c2 | d6 d2 | (c4 B2 A^G | F^GAF G4) |"^," F2 ^A4 A2 | ^A4 B4 | %53
w: quae so-|la, quae|so- la fu-|i- sti|dig\- * * *||na, su- sti-|ne- re|
 (^A3 B c2 d2- | dc c4 B2) | c8 | z2 c2 (A2 B2 | c8) | ^A4 z4 | z8 | c4 d3 c | B2 ^A2 B3 =A | %62
w: Re\- * * *||gem|coe- lo\- *||rum||et Do\- *||
 G2 F2 E3 F | G2 G2[Q:1/4=106] F4- |[Q:1/4=104] F4[Q:1/4=102] z2[Q:1/4=101] F2 | %65
w: |* mi- num,|* et|
[Q:1/4=99] (G3[Q:1/4=98] F[Q:1/4=97] E2[Q:1/4=96] F2 |[Q:1/4=95] G2)[Q:1/4=94] G2[Q:1/4=93] F4- | %67
w: Do\- * * *|* mi- num.|
[Q:1/4=92] F8 |] %68
w: |
V:2
 F8 | F4 F4 | A4 E2 (F2- | F2 ED E4) | F8 | z2 F4 E2 | F8 |"^," ^D2 F4 F2 | F2 F2 G4 |[M:4/4] F8 | %10
w: Ve-|re lan-|guo- res no\-||stros|ip- se|tu-|lit, et do-|lo- res no-|stros,|
 z4 z2 F2- | F2 F2 A2 ^G2 | (A6 ^G2 | F3 ^G A4- | A4 ^G2) E2 | D2 B,2 D4 | C2 (A3 ^G F2- | %17
w: et|* do- lo- res|no\- *||* stros ip-|se por- ta-|vit por\- * *|
 F2) (ED E4) | F4 z4 | F4 F2 F2 | (A4 ^G4) | F2 A2 A2 A2 | (G4 F4) | ^D4 z2 F2 | F2 D2 (E2 F2- | %25
w: * ta * *|vit:|cu- jus li-|vo\- *|re sa- na- ti|su\- *|mus, cu-|jus li- vo\- *|
 F2 E2) F2 A2 | A2 A2 (G4 | F4) ^D4 | z4 F4- | F4 F4- | F4 E4- | E4 D4- | D4 C4- | C2 ^D2 E4 | %34
w: * * re sa-|na- ti su\-|* mus.|Dul\-|* ce|* lig\-|* num,|* dul\-|* ces cla-|
"^," A4 D4- | D2 C2 C4 | (E4 F4) | E4 (D2 CB, | C2) C2 ^D4- | D4 z4 | z8 | z8 | z2 E2 E4 | F6 F2 | %44
w: vos, dul\-|* ci- a|fe\- *|rens pon\- * *|* de- ra,||||quae so-|la fu-|
 ^D2 D2 E4- | E4 C4 | z2 C2 D4 | B2 E2 E4 | F6 F2 | E2 A2 (^G2 A2- | A^G F4 ^E2) |"^," F2 F4 F2 | %52
w: i- sti dig\-|* na,|quae so-|la, quae so-|la fu-|i- sti dig\- *||na, su- sti-|
 F4 F4 | F8- | F8 |"^," F4 A4 | (^G2 A4 GF | ^G8) | F4 z2 F2 | (E2 D2 C2 B,2- | B,^A, A,2 B,3 C | %61
w: ne- re|Re\-||gem coe-|lo\- * * *||rum et|Do\- * * *||
 D2) C2 B,4 | z2 F2 (G3 F | E2 D2 C4- | C2) C2 ^D4 | z2 E2 (G2 F2- | FE E4) (^DC) | ^D8 |] %68
w: * mi- num,|et Do\- *||* mi- num,|et Do\- *|* * * mi\- *|num.|
V:3
 d8 | c4 d4 | (e3 d c2) A2 | B8 | c4 (d4- | d2 c2 B3) c | (d2 cB c4) | B4 z2 d2- | d2 d2 d2 e2 | %9
w: Ve-|re lan-|guo\- * * res|no-|stros ip\-|* * * se|tu\- * * *|lit, et|* do- lo- res|
[M:4/4][K:treble-8] (d2 Bc de f2- | f2 e2)"^," f2 c2- | c2 c2 f2 ^e2 | (f6 e2 | d4) c2 f2 | %14
w: no\- * * * * *|* * stros, et|* do- lo- res|no\- *|* stros ip-|
 e2 c2 e4 | B2 B2 A2 (F^G | AB c4 A2) | B8 | c4 z4 | d4 d2 d2 | (e2 f4 ^e2) | f2 f2 f2 f2 | %22
w: se por- ta-|vit, ip- se por\- *||ta-|vit:|cu- jus li-|vo\- * *|re sa- na- ti|
 (e3 d c4) | B4 z2 B2 | B2 B2 (A2 F2 | G4 F2 f2 | f2 f2 (e3 d | c4) B4 | z4 c4- | c4 d4- | d4 B4- | %31
w: su\- * *|mus, cu-|jus li- vo\- *|* re sa-|na- ti su\- *|* mus.|Dul\-|* ce|* lig\-|
 B4 B4- | B4 ^A4- | A2 ^A2 B2 c2) |"^," d4 f4- | f2 e2 e4 | (c4 d4) | B2 (c3 B B2- | B2) ^A2 B4 | %39
w: * num,|* dul\-|* ces cla\- *|vos, dul\-|* ci- a|fe\- *|rens pon\- * *|* de- ra,|
 z4 z2 e2 | e4 f4- | f2 f2 ^d2 d2 | (e3 =d cBA^G | F4) B4 | z2 B2 B4 | c6 c2 | ^A2 A2 (B3 =A | %47
w: quae|so- la|* fu- i- sti|dig\- * * * * *|* na,|quae so-|la fu-|i- sti dig\- *|
 ^GF G4) E2 | z2 B2 B4 | c2 A2 e2 f2 | (d4 c4) |"^," F2 c4 c2 | c4 d4 | (c6 B2 | c4 d4) | %55
w: * * * na,|quae so-|la fu- i- sti|dig\- *|na, su- sti-|ne- re|Re\- *||
"^," c4 f4 | (^e4 f4- | f2 ^e^d e4) | f2 c2 (d3 c | B2 A2 G2 F2- | F2) E2 F2 F2 | (f3 e dc B2- | %62
w: gem coe-|lo\- *||rum et Do\- *||* mi- num, et|Do\- * * * *|
 Bc d2 B2 c2- | cB B4 ^A^G) | ^A2 A2 B4- | B8 | B8 | B8 |] %68
w: ||* mi- num.||||
V:4
 B,8 | F,4 B,4 | A,6 F,2 | G,8 | F,4 B,4- | B,2 A,2 (G,4 | F,8) |"^," B,,4 B,4- | B,2 B,2 G,2 E,2 | %9
w: Ve-|re lan-|guo- res|no-|stros ip\-|* se tu\-||lit, et|* do- lo- res|
[M:4/4] (B,6 A,2 | G,4) F,4- | F,4 z4 | z8 | z2 B,2 A,2 F,2 | A,4 E,4 | G,4 D,4 | F,8 | G,8 | %18
w: no\- *|* stros,|||ip- se por-|ta- vit,|ip- se|por-|ta-|
 F,4 z4 | B,4 B,2 B,2 | (A,3 B, C4) | F,2 D,2 D,2 D,2 | (E,4 F,4) | B,,4 z4 | z8 | z4 z2 D,2 | %26
w: vit:|cu- jus li-|vo\- * *|re sa- na- ti|su\- *|mus||sa-|
 D,2 D,2 (E,4 | F,4) B,,4 | z4 F,4- | F,4 D,4- | D,4 E,4- | E,4 B,,4- | B,,4 F,4- | F,2 F,2 E,4 | %34
w: na- ti su\-|* mus.|Dul\-|* ce|* lig\-|* num,|* dul\-|* ces cla-|
 D,8 | A,6 A,2 | A,4 D,4 | E,4 F,4- | F,2 F,2"^," B,,2 B,2 | B,4 C4- | C2 C2 A,2 F,2 | B,8 | A,8 | %43
w: vos,|dul- ci-|a fe-|rens pon\-|* de- ra, quae|so- la|* fu- i- sti|dig-|na,|
 z8 | z4 E,4 | E,4 F,4- | F,2 F,2 D,2 B,,2 | (E,3 D, C,4) | B,,8 | z8 | z8 | z2 F,4 F,2 | %52
w: |quae|so- la|* fu- i- sti|dig\- * *|na,|||su- sti-|
 F,4 B,,4 | (F,3 ^G, ^A,2 B,2- | B,^A, A,2 B,4) | F,4 z2 F,2 | (C4 D4 | C8) | F,2 F,2 (B,3 A, | %59
w: ne- re|Re\- * * *||gem coe-|lo\- *||rum et Do\- *|
 G,2 F,2 E,2 D,2 | C,2) C,2 B,,4 | z2 F,2 (G,3 F, | E,2 D,2 E,4- | E,4 F,4- | F,2) F,2 B,,2 B,,2 | %65
w: |* mi- num,|et Do\- *|||* mi- num, et|
 (E,6 ^D,2 | E,2) E,2 B,,4- | B,,8 |] %68
w: Do\- *|* mi- num.||

